X:1
T:Promenade Dans Les Bois
T:Richard Clayderman Arranged by: Jerry Bustillo
T:Moderato
T:Promenade Dans Les Bois | Jerry Bustillo | http://jerrybustillo.blogspot.com
T:Promenade Dans Les Bois | Jerry Bustillo | http://jerrybustillo.blogspot.com
T:Promenade Dans Les Bois | Jerry Bustillo | http://jerrybustillo.blogspot.com
T:Promenade Dans Les Bois | Jerry Bustillo | http://jerrybustillo.blogspot.com
Z:Promenade Dans Les Bois | Jerry Bustillo | http://jerrybustillo.blogspot.com
%%score { ( 1 4 ) | ( 2 3 ) }
L:1/8
M:3/4
K:F
V:1 treble nm="Piano"
V:4 treble 
V:2 bass 
V:3 bass 
V:1
 z2 [A,DF]4 | z2 [G,^CE]4 | z6 | z4 EB |] A2 DF AF | B3 A GF | E3 C AG | A3 G FE | D2 B,D AF | %9
 G3 F ED | ^CA, =B,C DE | FE FG A2 | a2 df af | b3 a gf | e3 c ag | a3 g fe | d2 Bd af | g3 f ed | %18
 _dA =Bd =de | fe fg a2 || %20
"^This seems hard.\nBut you can do it if you\nfamiliarize the Chords." d'2 a2 d'2 | b4 g2 | %22
 c'3 d' c'g | a6 | _e2 f2 g2 | b2 g2 b2 | a4 e2 | _g3 d ga | d'2 a2 d'2 | b4 g2 | c'3 d' c'g | a6 | %32
 _e2 f2 g2 | b2 g2 b2 | a6 | z4 EB | A2 DF AF | B3 A GF | E3 C AG | A3 G FE | D2 B,D AF | G3 F ED | %42
 ^CA, =B,C DE | FE FG A2 | a2 df af | b3 a gf | e3 c ag | a3 g fe | d2 Bd af | g3 f ed | %50
 _dA =Bd =de | fe fg a2 || !arpeggio![dd']2 !arpeggio![Aa]2 !arpeggio![dd']2 | %53
 !arpeggio![Bb]4 !arpeggio![Gg]2 | !arpeggio![cc']3 d' c'g | !arpeggio![Aa]6 | %56
 !arpeggio![_E_e]2 !arpeggio![Ff]2"^Thumb Crossing""^You may play only the upper Note\nif you don't want Thumb Crossing" !arpeggio![Gg]2 | %57
 !arpeggio![Bb]2 !arpeggio![Gg]2 !arpeggio![Bb]2 | !arpeggio![Aa]4 !arpeggio![Ee]2 | %59
 !arpeggio![_G_g]3 d ga | !arpeggio![dd']2 !arpeggio![Aa]2 !arpeggio![dd']2 | %61
 !arpeggio![Bb]4 !arpeggio![Gg]2 | !arpeggio![cc']3 d' c'g | !arpeggio![Aa]6 | %64
 !arpeggio![_E_e]2 !arpeggio![Ff]2 !arpeggio![Gg]2 | %65
 !arpeggio![Bb]2 !arpeggio![Gg]2 !arpeggio![Bb]2 || [Aa]6 | z4 EB | A2 DF AF | B3 A GF | E3 C AG | %71
 A3 G FE | D2 B,D AF | G3 F ED | ^CA, =B,C DE | FE FG A2 | a2 df af | b3 a gf | e3 c ag | a3 g fe | %80
 d2 Bd af | g3 f ed | _dA =Bd =de | fe fg a2 | !arpeggio![dd']2 !arpeggio![Aa]2 !arpeggio![dd']2 | %85
 !arpeggio![Bb]4 !arpeggio![Gg]2 | !arpeggio![cc']3 d' c'g | !arpeggio![Aa]6 | %88
 !arpeggio![_E_e]2 !arpeggio![Ff]2 !arpeggio![Gg]2 | %89
 !arpeggio![Bb]2 !arpeggio![Gg]2 !arpeggio![Bb]2 | !arpeggio![Aa]4 !arpeggio![Ee]2 | %91
 !arpeggio![_G_g]3 d ga | !arpeggio![dd']2 !arpeggio![Aa]2 !arpeggio![dd']2 | %93
 !arpeggio![Bb]4 !arpeggio![Gg]2 | !arpeggio![cc']3 d' c'g | !arpeggio![Aa]6 | %96
 !arpeggio![_E_e]2 !arpeggio![Ff]2 !arpeggio![Gg]2 | %97
 !arpeggio![Bb]2 !arpeggio![Gg]2 !arpeggio![Bb]2 | !arpeggio![Aa]4 !arpeggio![Ee]2 | %99
 !arpeggio![_G_g]3 d ga | !arpeggio![dd']2 !arpeggio![Aa]2 !arpeggio![dd']2 | %101
 !arpeggio![Bb]4 !arpeggio![Gg]2 | !arpeggio![cc']3 d' c'g | !arpeggio![Aa]6 | %104
 !arpeggio![_E_e]2 !arpeggio![Ff]2 !arpeggio![Gg]2 | %105
 !arpeggio![Bb]2 !arpeggio![Aa]2 !arpeggio![Gg]2 | [^F^f]6 | [cd-g-]6 | [dg]2- [dg]4 |] %109
V:2
!fff!!ped! !R.H.!D,,6!ped-up! | [A,,,A,,]6 | A,,2 B,,A,, E,B, | A,E, B,A, z2 |] %4
 D,,2 [F,A,]2 [F,A,]2 | G,,2 [G,B,]2 [G,B,]2 | C,2 [E,B,]2 [E,B,]2 | F,,2 [F,A,]2 [F,A,]2 | %8
 B,,2 [B,,D,]2 [F,B,]2 | G,,2 [G,B,]2 E,,2 | A,,2 [E,G,]2 [E,G,]2 | D,2 [F,A,]2 [A,,D,]2 | %12
 D,,2 [F,A,]2 [F,A,]2 | G,,2 [G,B,]2 [G,B,]2 | C,2 [E,B,]2 [E,B,]2 | F,,2 [F,A,]2 [F,A,]2 | %16
 B,,2 [B,,D,]2 [F,B,]2 | G,,2 [G,B,]2 E,,2 | A,,2 [E,G,]2 [E,G,]2 | D,2 [F,A,]2 [A,,D,]2 || %20
 D,,A,, D,F, A,A,, | G,,D, G,B, DD, | C,,G,, C,E, G,G,, | F,,C, F,A, CC, | _E,B, _EG BB, | %25
 C,,G,, C,E, G,G,, | A,,E, A,C EA, | D,,A,, D,^F, A,A,, | D,,A,, D,F, A,A,, | G,,D, G,B, DD, | %30
 C,,G,, C,E, G,G,, | F,,C, F,A, CC, | _E,B, _EG BB, | C,,G,, C,E, G,G,, | A,,2 B,,A,, E,B, | %35
 A,E, B,A, z2 | D,,2 [F,A,]2 [F,A,]2 | G,,2 [G,B,]2 [G,B,]2 | C,2 [E,B,]2 [E,B,]2 | %39
 F,,2 [F,A,]2 [F,A,]2 | B,,2 [B,,D,]2 [F,B,]2 | G,,2 [G,B,]2 E,,2 | A,,2 [E,G,]2 [E,G,]2 | %43
 D,2 [F,A,]2 [A,,D,]2 | D,,2 [F,A,]2 [F,A,]2 | G,,2 [G,B,]2 [G,B,]2 | C,2 [E,B,]2 [E,B,]2 | %47
 F,,2 [F,A,]2 [F,A,]2 | B,,2 [B,,D,]2 [F,B,]2 | G,,2 [G,B,]2 E,,2 | A,,2 [E,G,]2 [E,G,]2 | %51
 D,2 [F,A,]2 [A,,D,]2 || D,,A,, D,F, A,A,, | G,,D, G,B, DD, | C,,G,, C,E, G,G,, | F,,C, F,A, CC, | %56
 _E,B, _EG BB, | C,,G,, C,E, G,G,, | A,,E, A,C EA, | D,,A,, D,^F, A,A,, | D,,A,, D,F, A,A,, | %61
 G,,D, G,B, DD, | C,,G,, C,E, G,G,, | F,,C, F,A, CC, | _E,B, _EG BB, | C,,G,, C,E, G,G,, || %66
 A,,2 B,,A,, E,B, | A,E, B,A, z2 | D,,2 [F,A,]2 [F,A,]2 | G,,2 [G,B,]2 [G,B,]2 | %70
 C,2 [E,B,]2 [E,B,]2 | F,,2 [F,A,]2 [F,A,]2 | B,,2 [B,,D,]2 [F,B,]2 | G,,2 [G,B,]2 E,,2 | %74
 A,,2 [E,G,]2 [E,G,]2 | D,2 [F,A,]2 [A,,D,]2 | D,,2 [F,A,]2 [F,A,]2 | G,,2 [G,B,]2 [G,B,]2 | %78
 C,2 [E,B,]2 [E,B,]2 | F,,2 [F,A,]2 [F,A,]2 | B,,2 [B,,D,]2 [F,B,]2 | G,,2 [G,B,]2 E,,2 | %82
 A,,2 [E,G,]2 [E,G,]2 | D,2 [F,A,]2 [A,,D,]2 | D,,A,, D,F, A,A,, | G,,D, G,B, DD, | %86
 C,,G,, C,E, G,G,, | F,,C, F,A, CC, | _E,B, _EG BB, | C,,G,, C,E, G,G,, | A,,E, A,C EA, | %91
 D,,A,, D,^F, A,A,, | D,,A,, D,F, A,A,, | G,,D, G,B, DD, | C,,G,, C,E, G,G,, | F,,C, F,A, CC, | %96
 _E,B, _EG BB, | C,,G,, C,E, G,G,, | A,,E, A,C EA, | D,,A,, D,^F, A,A,, | D,,A,, D,F, A,A,, | %101
 G,,D, G,B, DD, | C,,G,, C,E, G,G,, | F,,C, F,A, CC, | _E,B, _EG BB, | C,,G,, C,E, G,G,, | %106
 ^F,^F,, E,E,, F,F,, | G,,2 D,2 G,2 | D2 G,,4 |] %109
V:3
 F,6 | x6 | x6 | x6 |] x6 | x6 | x6 | x6 | x6 | x6 | x6 | x6 | x6 | x6 | x6 | x6 | x6 | x6 | x6 | %19
 x6 || x6 | x6 | x6 | x6 | x6 | x6 | x6 | x6 | x6 | x6 | x6 | x6 | x6 | x6 | x6 | x6 | x6 | x6 | %38
 x6 | x6 | x6 | x6 | x6 | x6 | x6 | x6 | x6 | x6 | x6 | x6 | x6 | x6 || x6 | x6 | x6 | x6 | x6 | %57
 x6 | x6 | x6 | x6 | x6 | x6 | x6 | x6 | x6 || x6 | x6 | x6 | x6 | x6 | x6 | x6 | x6 | x6 | x6 | %76
 x6 | x6 | x6 | x6 | x6 | x6 | x6 | x6 | x6 | x6 | x6 | x6 | x6 | x6 | x6 | x6 | x6 | x6 | x6 | %95
 x6 | x6 | x6 | x6 | x6 | x6 | x6 | x6 | x6 | x6 | x6 | x6 | x6 | x6 |] %109
V:4
 x6 | x6 | x6 | x6 |] x6 | x6 | x6 | x6 | x6 | x6 | x6 | x6 | x6 | x6 | x6 | x6 | x6 | x6 | x6 | %19
 x6 || x6 | x6 | x6 | x6 | x6 | x6 | x6 | x6 | x6 | x6 | x6 | x6 | x6 | x6 | x6 | x6 | x6 | x6 | %38
 x6 | x6 | x6 | x6 | x6 | x6 | x6 | x6 | x6 | x6 | x6 | x6 | x6 | x6 || x6 | x6 | x6 | x6 | x6 | %57
 x6 | x6 | x6 | x6 | x6 | x6 | x6 | x6 | x6 || x6 | x6 | x6 | x6 | x6 | x6 | x6 | x6 | x6 | x6 | %76
 x6 | x6 | x6 | x6 | x6 | x6 | x6 | x6 | x6 | x6 | x6 | x6 | x6 | x6 | x6 | x6 | x6 | x6 | x6 | %95
 x6 | x6 | x6 | x6 | x6 | x6 | x6 | x6 | x6 | x6 | x6 | x6 | G4 A2 | =B2- B4 |] %109

